X:1
T:Title
%%score { ( 1 2 ) | ( 3 4 ) }
L:1/8
M:3/4
K:E
V:1 treble nm="Grand Piano"
V:2 treble 
V:3 bass 
V:4 bass 
V:1
 z2 z2[Q:1/4=100] z F | G3 A [B,EG]2 | D3- [DG] [A,DF]2 | [G,B,E]4 .[B,GB]2 | [Ad]3 F [B,FA][Ac] | %5
 [EGB]3 B, [B,E][EG] |[M:2/4] [B,DF]4 |[M:1/4] [B,EG]>[K:bass][B,E] | %8
[M:3/4] [E,A,C]4[K:treble] [CFA]>[CF] | [F,B,D]4 [B,EB]2 | [G,E]4 [EAc]2 | [EGB]4 ^B2 | c4 z2 | %13
 B3 G D->[DF] |[M:2/4] E4 |] %15
V:2
 z2 z2 E2 | x6 | [A,F]4 z2 | x6 | x6 | x6 |[M:2/4] x4 |[M:1/4] x3/2[K:bass] x/ | %8
[M:3/4] x4[K:treble] x2 | x6 | x6 | x6 | z2 E2 e2 | z2 z2 [B,G]2 |[M:2/4] x4 |] %15
V:3
 z2 z2 G,A, | B,4 z2 | z2 z B, B,,2 | E,4 z[K:treble] e | z2 z D z D | z2 z G, G,E, |[M:2/4] B,,4 | %7
[M:1/4] z z/ G,/ |[M:3/4] A,,4 z z/ A,/ | B,,4 z z/ G/ | C,4 A,,2 | E,4[K:treble] [G,DF]2 | %12
 [CE]2 z2 [^A,C=G]2 | [B,EG]3[K:bass] [B,E] z z/ A,/ |[M:2/4] [E,G,]4 |] %15
V:4
 z2 z2 E,2 | [E,E]3- [E,CE] E,2 | B,,4 z2 | z2 z2 E,2[K:treble] | [F,B,]4 B,,2 | E,4 z2 | %6
[M:2/4] x4 |[M:1/4] G,,2 |[M:3/4] z2 z2 F,,2 | z2 z2 G,,2 | x6 | x4[K:treble] x2 | A,4 z2 | %13
 z2 z2[K:bass] B,,2 |[M:2/4] x4 |] %15

